src/assets/whiteboard_icons/text_tool.svg

<svg fill="none" height="24" viewBox="0 0 24 24" width="24" xmlns="http://www.w3.org/2000/svg"><path d="m12.7237 20h-2.147l-1.19699-3.287h-5.263l-1.197 3.287h-2.090003l4.731003-12.54h2.432zm-8.03699-4.94h4.123l-2.052-5.852zm15.46669-1.159c0-.6333-.1773-1.121-.532-1.463-.342-.3547-.817-.532-1.425-.532-.57 0-1.0576.133-1.463.399-.4053.266-.703.6967-.893 1.292l-1.71-.722c.2407-.7727.7094-1.3933 1.406-1.862.7094-.4687 1.6214-.703 2.736-.703.76 0 1.4314.1267 2.014.38.5827.2407 1.0387.608 1.368 1.102.342.494.513 1.1273.513 1.9v4.237c0 .4687.2344.703.7031.703.228 0 .4496-.0317.6649-.095l-.114 1.406c-.2913.1393-.6586.209-1.102.209-.4053 0-.7726-.0697-1.102-.209-.3166-.152-.57-.3737-.76-.665-.1773-.304-.266-.6777-.266-1.121v-.133l.418-.019c-.114.494-.3483.9057-.703 1.235-.3546.3167-.7663.5573-1.235.722-.4686.152-.9436.228-1.425.228-.5953 0-1.1336-.095-1.615-.285-.4686-.19-.8423-.475-1.121-.855-.266-.3927-.399-.874-.399-1.444 0-.7093.228-1.292.684-1.748.4687-.456 1.1274-.7663 1.976-.931l3.686-.722-.019 1.425-2.679.551c-.532.1013-.931.247-1.197.437s-.399.4687-.399.836c0 .3547.133.6397.399.855.2787.2027.646.304 1.102.304.3167 0 .6207-.038.912-.114.304-.076.5764-.1963.817-.361.2407-.1773.4244-.399.551-.665.1394-.2787.209-.608.209-.988z" fill="#343440"/></svg>

<svg width="24" height="24" viewBox="0 0 24 24" fill="none" xmlns="http://www.w3.org/2000/svg">
<path d="M12.7237 20H10.5767L9.37971 16.713H4.11671L2.91971 20H0.829707L5.56071 7.46H7.99271L12.7237 20ZM4.68671 15.06H8.80971L6.75771 9.208L4.68671 15.06ZM20.1534 13.901C20.1534 13.2677 19.9761 12.78 19.6214 12.438C19.2794 12.0833 18.8044 11.906 18.1964 11.906C17.6264 11.906 17.1388 12.039 16.7334 12.305C16.3281 12.571 16.0304 13.0017 15.8404 13.597L14.1304 12.875C14.3711 12.1023 14.8398 11.4817 15.5364 11.013C16.2458 10.5443 17.1578 10.31 18.2724 10.31C19.0324 10.31 19.7038 10.4367 20.2864 10.69C20.8691 10.9307 21.3251 11.298 21.6544 11.792C21.9964 12.286 22.1674 12.9193 22.1674 13.692V17.929C22.1674 18.3977 22.4018 18.632 22.8705 18.632C23.0985 18.632 23.3201 18.6003 23.5354 18.537L23.4214 19.943C23.1301 20.0823 22.7628 20.152 22.3194 20.152C21.9141 20.152 21.5468 20.0823 21.2174 19.943C20.9008 19.791 20.6474 19.5693 20.4574 19.278C20.2801 18.974 20.1914 18.6003 20.1914 18.157V18.024L20.6094 18.005C20.4954 18.499 20.2611 18.9107 19.9064 19.24C19.5518 19.5567 19.1401 19.7973 18.6714 19.962C18.2028 20.114 17.7278 20.19 17.2464 20.19C16.6511 20.19 16.1128 20.095 15.6314 19.905C15.1628 19.715 14.7891 19.43 14.5104 19.05C14.2444 18.6573 14.1114 18.176 14.1114 17.606C14.1114 16.8967 14.3394 16.314 14.7954 15.858C15.2641 15.402 15.9228 15.0917 16.7714 14.927L20.4574 14.205L20.4384 15.63L17.7594 16.181C17.2274 16.2823 16.8284 16.428 16.5624 16.618C16.2964 16.808 16.1634 17.0867 16.1634 17.454C16.1634 17.8087 16.2964 18.0937 16.5624 18.309C16.8411 18.5117 17.2084 18.613 17.6644 18.613C17.9811 18.613 18.2851 18.575 18.5764 18.499C18.8804 18.423 19.1528 18.3027 19.3934 18.138C19.6341 17.9607 19.8178 17.739 19.9444 17.473C20.0838 17.1943 20.1534 16.865 20.1534 16.485V13.901Z" fill="#343440"/>
</svg>
